X: 127
T: Victoria Hornpipe
O: Skye Collection
R: hornpipe
Z: 2006 John Chambers <jc:trillian.mit.edu>
S: handwritten MS (Highland Whisky arrangement)
M: C|
L: 1/8
K: A
"(E7)"e2 \
| "A"a2e2 dcBA | "A"a2e2 dcBA \
|1,3  "G"dcBA    =G2Bd | "G"=g2d2 d2 \
:|2,4 "Bm"dcBA "E7"GBed | "A"c2A2 A2 :|
|: "(E7)"cB \
| "A"ABcd e2e=g | "D"f2df "A"e2ce \
|1,3  "G"dcBA    =G2Bd | "G"=g2d2 d2 \
:|2,4 "Bm"dcBA "E7"GBed | "A"c2A2 A2 :|

%%sep 1 1 500

